build/img/app-icon.svg

<svg width="74" height="74" viewBox="0 0 74 74" fill="none" xmlns="http://www.w3.org/2000/svg">
<path d="M58.898 0H15.102C6.76141 0 0 6.76141 0 15.102V58.898C0 67.2386 6.76141 74 15.102 74H58.898C67.2386 74 74 67.2386 74 58.898V15.102C74 6.76141 67.2386 0 58.898 0Z" fill="url(#paint0_linear)"/>
<path d="M14.8044 34.8917C15.0178 35.1549 15.3265 35.3232 15.6633 35.36C16.0002 35.3967 16.3379 35.299 16.6031 35.088L17.7886 34.135V54.038C17.7898 54.6535 18.0346 55.2436 18.4696 55.6791C18.9045 56.1146 19.4942 56.3602 20.1098 56.3622H53.1213C53.7372 56.3606 54.3275 56.1152 54.763 55.6797C55.1985 55.2442 55.4439 54.6539 55.4455 54.038V34.1758L56.5948 35.1001C56.8227 35.2803 57.1046 35.3787 57.3952 35.3794C57.5877 35.3797 57.7778 35.3358 57.9508 35.2513C58.1239 35.1667 58.2753 35.0437 58.3934 34.8917C58.605 34.6262 58.7031 34.2878 58.6663 33.9504C58.6295 33.6129 58.4609 33.3037 58.1971 33.09L37.9921 16.8447L37.5284 16.6137C37.239 16.4865 36.9263 16.4209 36.6102 16.4209C36.2941 16.4209 35.9815 16.4865 35.6921 16.6137L35.2058 16.8387L15.0023 33.0855C14.739 33.2988 14.5707 33.6075 14.534 33.9444C14.4972 34.2812 14.5949 34.619 14.8059 34.8841" fill="white"/>
<path d="M44.7155 46.6425C45.3619 46.383 45.9446 45.9868 46.4236 45.4811C46.8941 44.977 47.2609 44.3854 47.5034 43.7399C47.7711 43.0675 47.905 42.3493 47.8975 41.6256C47.911 40.894 47.7769 40.1673 47.5034 39.4886C47.2603 38.8502 46.8933 38.2661 46.4236 37.7701C45.9406 37.2665 45.3592 36.8676 44.7155 36.5981C44.0104 36.3171 43.2576 36.1751 42.4986 36.1798H39.3754V47.1182H42.4986C43.2613 47.1035 44.014 46.942 44.7155 46.6425ZM42.4986 32.883C43.7026 32.8761 44.8966 33.1007 46.0158 33.5445C47.0769 33.9839 48.0462 34.6186 48.8731 35.4156C49.689 36.209 50.3398 37.156 50.7881 38.202C51.2576 39.2819 51.4914 40.4496 51.4737 41.6271C51.4856 42.804 51.2521 43.9706 50.7881 45.0522C50.3245 46.0902 49.6756 47.0349 48.8731 47.8401C48.0565 48.6411 47.0839 49.2656 46.0158 49.675C44.9033 50.1437 43.7058 50.3772 42.4986 50.3606H35.7993V32.883H42.4986Z" fill="#231F20"/>
<path d="M27.1036 40.1189C26.5964 40.1184 26.105 39.942 25.7132 39.6198C25.3214 39.2977 25.0534 38.8496 24.9549 38.352C24.8564 37.8544 24.9334 37.3381 25.1729 36.8909C25.4123 36.4438 25.7994 36.0934 26.2682 35.8996C26.7369 35.7058 27.2584 35.6805 27.7437 35.8281C28.229 35.9756 28.6482 36.2868 28.9298 36.7087C29.2114 37.1306 29.338 37.6371 29.2881 38.1419C29.2382 38.6466 29.0149 39.1185 28.6561 39.4771C28.4522 39.6808 28.2101 39.8423 27.9437 39.9524C27.6773 40.0626 27.3919 40.1191 27.1036 40.1189ZM27.1036 32.583C26.047 32.5827 25.0141 32.8958 24.1354 33.4826C23.2568 34.0694 22.5719 34.9036 22.1674 35.8798C21.7629 36.8559 21.657 37.93 21.8631 38.9663C22.0691 40.0026 22.5779 40.9545 23.325 41.7017C24.0721 42.4488 25.0241 42.9576 26.0604 43.1636C27.0967 43.3697 28.1709 43.2638 29.147 42.8593C30.1231 42.4548 30.9573 41.7699 31.5441 40.8913C32.131 40.0126 32.444 38.9797 32.4437 37.9231C32.4433 36.5069 31.8805 35.1489 30.8792 34.1475C29.8778 33.1462 28.5198 32.5834 27.1036 32.583Z" fill="#231F20"/>
<defs>
<linearGradient id="paint0_linear" x1="37" y1="0" x2="37" y2="74" gradientUnits="userSpaceOnUse">
<stop stop-color="#7FB0F8"/>
<stop offset="1" stop-color="#D5D3FF"/>
</linearGradient>
</defs>
</svg>

<svg width="74" height="74" viewBox="0 0 74 74" fill="none" xmlns="http://www.w3.org/2000/svg"><path d="M58.898 0H15.102C6.762 0 0 6.761 0 15.102v43.796C0 67.238 6.761 74 15.102 74h43.796C67.238 74 74 67.239 74 58.898V15.102C74 6.762 67.239 0 58.898 0z" fill="url(#paint0_linear)"/><path d="M14.804 34.892a1.286 1.286 0 001.8.196l1.185-.953v19.903a2.329 2.329 0 002.32 2.324h33.012a2.33 2.33 0 002.325-2.324V34.176l1.149.924c.228.18.51.279.8.28a1.262 1.262 0 00.998-.488 1.287 1.287 0 00-.196-1.802L37.992 16.845l-.464-.231a2.282 2.282 0 00-1.836 0l-.486.225-20.204 16.247a1.284 1.284 0 00-.196 1.798" fill="#fff"/><path d="M44.715 46.642a4.833 4.833 0 001.709-1.16 5.266 5.266 0 001.08-1.742 5.56 5.56 0 00.394-2.114 5.448 5.448 0 00-.395-2.137 5.18 5.18 0 00-1.08-1.719 5.09 5.09 0 00-1.708-1.172 5.89 5.89 0 00-2.216-.418h-3.124v10.938H42.5a5.937 5.937 0 002.216-.476zM42.5 32.883a9.396 9.396 0 013.517.661 9.177 9.177 0 012.857 1.872 8.627 8.627 0 011.915 2.786c.47 1.08.703 2.248.686 3.425a8.47 8.47 0 01-.686 3.425 9.351 9.351 0 01-1.915 2.788 8.346 8.346 0 01-2.857 1.835 8.75 8.75 0 01-3.517.686h-6.7V32.883h6.7zm-15.396 7.236a2.193 2.193 0 11.004-4.385 2.193 2.193 0 01-.004 4.385zm0-7.536a5.342 5.342 0 10-.003 10.684 5.342 5.342 0 00.003-10.684z" fill="#231F20"/><defs><linearGradient id="paint0_linear" x1="37" y1="0" x2="37" y2="74" gradientUnits="userSpaceOnUse"><stop stop-color="#7FB0F8"/><stop offset="1" stop-color="#D5D3FF"/></linearGradient></defs></svg>
